markup/sourceimages/icon7.svg

<svg xmlns="http://www.w3.org/2000/svg" width="61" height="61"><path fill-rule="evenodd" d="M58.967 4.071V2.037H61v2.034h-2.033zm0 2.033h-2.034V4.071h2.034v2.033zM54.9 4.071V2.037h2.033v2.034H54.9zM56.933.004h2.034v2.033h-2.034V.004zM54.9 24.402h-2.033v-2.034H54.9v2.034zm-2.033 2.033h-2.034v-2.033h2.034v2.033zM48.8 24.402v-2.034h2.033v2.034H48.8zm2.033-4.067h2.034v2.033h-2.034v-2.033zm0-18.298h2.034v2.034h-2.034V2.037zm1.017 43.712a3.042 3.042 0 0 1 1.027 5.909 4.013 4.013 0 0 1-2.485 6.637l-19.753 2.693a1.062 1.062 0 0 1-.276 0L10.61 58.295a4.013 4.013 0 0 1-2.486-6.637 3.042 3.042 0 0 1 1.026-5.909h2.459l3.641-6.37V28.467a4.066 4.066 0 0 1 4.067-4.065V11.186h.007c0-.013-.007-.025-.007-.038C19.52 5.746 23.509.004 30.5.004c.249-.008.498-.008.747 0 5.97.207 10.643 5.213 10.437 11.182v13.216a4.065 4.065 0 0 1 4.066 4.065v10.912l3.641 6.37h2.459zm-1.734 10.53a2.011 2.011 0 0 0 1.715-2.268 2.005 2.005 0 0 0-2.265-1.707l-7.229.986-8.918 1.219 5.316 3.322 11.381-1.552zm-29.333-4.745l9.717 1.322 9.718-1.326-4.085-4.764H24.868l-4.085 4.768zm2.507-6.047l-.407-1.615-6.369 7.077 1.876.255 4.9-5.717zm19.325 5.717l1.88-.255-6.37-7.077-.406 1.615 4.896 5.717zm-31.73 5.075L30.5 58.955l5.087-.695-5.443-3.401-11.488-1.566-7.23-.986a2.007 2.007 0 0 0-2.267 1.722 2.005 2.005 0 0 0 1.726 2.25zm7.674-29.698a2.034 2.034 0 0 0-1.275 1.887V39.65c0 .178-.046.353-.135.508l-4.067 7.116a1.014 1.014 0 0 1-.882.508H9.15a1.017 1.017 0 0 0 0 2.033h5.648l7.49-8.321-1.864-7.456-1.865-7.457zm13.975-1.163v-4.354a7.811 7.811 0 0 1-2.034.288 7.938 7.938 0 0 1-2.033-.281v4.347c0 .561-.455 1.017-1.017 1.017h-2.033v1.3l5.083 1.694 5.084-1.694v-1.3H33.55a1.017 1.017 0 0 1-1.016-1.017zM38.06 13.22h-.443a7.132 7.132 0 0 1-6.82-5.097 18.393 18.393 0 0 1-8.235 3.794c.841 3.98 4.407 7.402 7.938 7.402 3.067 0 6.289-2.689 7.56-6.099zM26.434 24.402v-4.147a11.961 11.961 0 0 1-5.084-5.562v9.709h5.084zM39.65 10.375a8.754 8.754 0 0 0-9.15-8.338 9.123 9.123 0 0 0-9.036 8.014 16.403 16.403 0 0 0 9.334-4.666 1.018 1.018 0 0 1 1.736.719 5.088 5.088 0 0 0 5.083 5.082h2.033c.013-.27.013-.541 0-.811zm0 4.315a12.057 12.057 0 0 1-5.083 5.559v4.153h5.083V14.69zm-2.033 11.745v2.033c0 .437-.279.826-.694.964l-6.1 2.033a1 1 0 0 1-.644 0l-6.1-2.033v-.001a1.015 1.015 0 0 1-.695-.963v-2.033h-2.765l4.575 18.298h10.612l4.575-18.298h-2.764zm10.301 20.839l-4.067-7.116a1.018 1.018 0 0 1-.134-.508V28.468c0-.831-.505-1.579-1.277-1.888l-1.864 7.456-1.864 7.457 7.491 8.322h5.647a1.017 1.017 0 1 0 0-2.033H48.8c-.364.001-.7-.193-.882-.508zM14.234.004h2.033v2.033h-2.033V.004zM9.151 23.385v-2.033h2.033v2.033H9.151zm2.033-4.066h2.033v2.033h-2.033v-2.033zm-2.033-2.033h2.033v2.033H9.151v-2.033zm-2.035 2.033h2.033v2.033H7.116v-2.033zM4.066 6.104h2.033v2.033H4.066V6.104zM2.033 8.137h2.033v2.033H2.033V8.137H0V6.104h2.033V4.071h2.033v2.033H2.033v2.033zm3.05 13.215H3.049v-2.033h2.034v2.033z"/></svg>

<svg 
 xmlns="http://www.w3.org/2000/svg"
 xmlns:xlink="http://www.w3.org/1999/xlink"
 width="61px" height="61px">
<path fill-rule="evenodd"  fill="rgb(0, 0, 0)"
 d="M58.967,4.071 L58.967,2.037 L61.000,2.037 L61.000,4.071 L58.967,4.071 ZM58.967,6.104 L56.933,6.104 L56.933,4.071 L58.967,4.071 L58.967,6.104 ZM54.900,4.071 L54.900,2.037 L56.933,2.037 L56.933,4.071 L54.900,4.071 ZM56.933,0.004 L58.967,0.004 L58.967,2.037 L56.933,2.037 L56.933,0.004 ZM54.900,24.402 L52.867,24.402 L52.867,22.368 L54.900,22.368 L54.900,24.402 ZM52.867,26.435 L50.833,26.435 L50.833,24.402 L52.867,24.402 L52.867,26.435 ZM48.800,24.402 L48.800,22.368 L50.833,22.368 L50.833,24.402 L48.800,24.402 ZM50.833,20.335 L52.867,20.335 L52.867,22.368 L50.833,22.368 L50.833,20.335 ZM50.833,2.037 L52.867,2.037 L52.867,4.071 L50.833,4.071 L50.833,2.037 ZM51.850,45.749 C53.140,45.746 54.293,46.557 54.725,47.772 C55.288,49.355 54.461,51.095 52.877,51.658 C53.408,52.258 53.747,53.003 53.851,53.797 C54.138,55.994 52.589,58.008 50.392,58.295 L30.639,60.988 C30.547,61.000 30.455,61.000 30.363,60.988 L10.610,58.295 C9.816,58.191 9.071,57.852 8.471,57.322 C6.811,55.853 6.656,53.318 8.124,51.658 C6.909,51.226 6.098,50.075 6.101,48.785 C6.104,47.105 7.470,45.745 9.150,45.749 L11.609,45.749 L15.250,39.379 L15.250,28.467 C15.250,26.222 17.071,24.402 19.317,24.402 L19.317,11.186 L19.324,11.186 C19.324,11.173 19.317,11.161 19.317,11.148 C19.520,5.746 23.509,0.004 30.500,0.004 C30.749,-0.004 30.998,-0.004 31.247,0.004 C37.217,0.211 41.890,5.217 41.684,11.186 L41.684,24.402 C43.930,24.402 45.750,26.222 45.750,28.467 L45.750,39.379 L49.391,45.749 L51.850,45.749 ZM50.116,56.279 C51.108,56.141 51.847,55.294 51.850,54.293 C51.851,54.199 51.844,54.105 51.831,54.011 C51.677,52.914 50.663,52.150 49.566,52.304 L42.337,53.290 L33.419,54.509 L38.735,57.831 L50.116,56.279 ZM20.783,51.534 L30.500,52.856 L40.218,51.530 L36.133,46.766 L24.868,46.766 L20.783,51.534 ZM23.290,45.487 L22.883,43.872 L16.514,50.949 L18.390,51.204 L23.290,45.487 ZM42.615,51.204 L44.495,50.949 L38.125,43.872 L37.719,45.487 L42.615,51.204 ZM10.885,56.279 L30.500,58.955 L35.587,58.260 L30.144,54.859 L18.656,53.293 L11.426,52.307 C11.337,52.294 11.246,52.287 11.156,52.287 C10.147,52.283 9.292,53.029 9.159,54.029 C9.014,55.127 9.787,56.134 10.885,56.279 ZM18.559,26.581 C17.789,26.890 17.284,27.638 17.284,28.468 L17.284,39.650 C17.284,39.828 17.238,40.003 17.149,40.158 L13.082,47.274 C12.901,47.589 12.564,47.783 12.200,47.782 L9.150,47.782 C8.589,47.782 8.133,48.237 8.133,48.798 C8.133,49.360 8.589,49.815 9.150,49.815 L14.798,49.815 L22.288,41.494 L20.424,34.038 L18.559,26.581 ZM32.534,25.418 L32.534,21.064 C31.872,21.249 31.188,21.346 30.500,21.352 C29.813,21.347 29.130,21.252 28.467,21.071 L28.467,25.418 C28.467,25.979 28.012,26.435 27.450,26.435 L25.417,26.435 L25.417,27.735 L30.500,29.429 L35.584,27.735 L35.584,26.435 L33.550,26.435 C32.989,26.435 32.534,25.979 32.534,25.418 ZM38.060,13.220 L37.617,13.220 C34.467,13.213 31.695,11.141 30.797,8.123 C28.412,10.055 25.581,11.359 22.562,11.917 C23.403,15.897 26.969,19.319 30.500,19.319 C33.567,19.319 36.789,16.630 38.060,13.220 ZM26.434,24.402 L26.434,20.255 C24.184,18.997 22.401,17.046 21.350,14.693 L21.350,24.402 L26.434,24.402 ZM39.650,10.375 C39.426,5.546 35.329,1.813 30.500,2.037 C25.898,2.047 22.023,5.483 21.464,10.051 C25.000,9.553 28.278,7.915 30.798,5.385 C30.989,5.195 31.247,5.087 31.517,5.087 C32.078,5.087 32.533,5.542 32.534,6.104 C32.537,8.909 34.811,11.183 37.617,11.186 L39.650,11.186 C39.663,10.916 39.663,10.645 39.650,10.375 ZM39.650,14.690 C38.593,17.038 36.812,18.986 34.567,20.249 L34.567,24.402 L36.600,24.402 L39.650,24.402 L39.650,14.690 ZM37.617,26.435 L37.617,28.468 C37.617,28.905 37.338,29.294 36.923,29.432 L30.823,31.465 C30.614,31.536 30.388,31.536 30.179,31.465 L24.079,29.432 L24.079,29.431 C23.664,29.293 23.384,28.905 23.384,28.468 L23.384,26.435 L20.619,26.435 L25.194,44.733 L35.806,44.733 L40.381,26.435 L37.617,26.435 ZM47.918,47.274 L43.851,40.158 C43.763,40.003 43.716,39.828 43.717,39.650 L43.717,28.468 C43.717,27.637 43.212,26.889 42.440,26.580 L40.576,34.036 L38.712,41.493 L46.203,49.815 L51.850,49.815 C52.412,49.815 52.867,49.360 52.867,48.798 C52.867,48.237 52.412,47.782 51.850,47.782 L48.800,47.782 C48.436,47.783 48.100,47.589 47.918,47.274 ZM14.234,0.004 L16.267,0.004 L16.267,2.037 L14.234,2.037 L14.234,0.004 ZM9.151,23.385 L9.151,21.352 L11.184,21.352 L11.184,23.385 L9.151,23.385 ZM11.184,19.319 L13.217,19.319 L13.217,21.352 L11.184,21.352 L11.184,19.319 ZM9.151,17.286 L11.184,17.286 L11.184,19.319 L9.151,19.319 L9.151,17.286 ZM7.116,19.319 L9.149,19.319 L9.149,21.352 L7.116,21.352 L7.116,19.319 ZM4.066,6.104 L6.099,6.104 L6.099,8.137 L4.066,8.137 L4.066,6.104 ZM2.033,8.137 L4.066,8.137 L4.066,10.170 L2.033,10.170 L2.033,8.137 L-0.000,8.137 L-0.000,6.104 L2.033,6.104 L2.033,4.071 L4.066,4.071 L4.066,6.104 L2.033,6.104 L2.033,8.137 ZM5.083,21.352 L3.049,21.352 L3.049,19.319 L5.083,19.319 L5.083,21.352 Z"/>
</svg>
